X: 25
T: Paddy Whack
O: Ireland
Z: 2012 John Chambers <jc:trillian.mit.edu>
B:Thompson, "The Compleat Tutor for the Fife" c.1760 p.23 (in F)
B: NEFR #25
R: jig
M: 6/8
L: 1/8
K: A
|:\
"A"Ace aga | "D"fed "E7"cdB | "A"Ace "B7"fga | "E7"gee efg |\
"A"aba aec | "D"dfa "A"ecA | "(F#m)"ABc "E7"dBe | "(A)"cAG "A"A3 :|
|:\
"A"ece "D"fdf | "A"ecA "E7"B2c | "A"Ace "B7"fga | "E7"gee efg |\
"A"aba aec | "D"dfa "A"ecA | "(F#m)"Ace "E7"dBe | "(A)"cAG "A"A3 :|
